;FLAVOR:Marlin
;TIME:4401
;Filament used: 3.02236m
;Layer height: 0.15
;MINX:103.7
;MINY:76.7
;MINZ:0.2
;MAXX:193.3
;MAXY:133.3
;MAXZ:14
;Generated with Cura_SteamEngine 4.5.0
M104 S200
M105
M109 S200
M82 ;absolute extrusion mode
; -- START GCODE --
G21                     ;set units to millimetres
G90                     ;set to absolute positioning
M106 S0                 ;set fan speed to zero (turned off)
G28 X0 Y0               ;move to the X/Y origin (Home)
G28 Z0                  ;move to the Z origin (Home)
G1 Z15.0 F1200          ;move Z to position 15.0 mm
G92 E0                  ;zero the extruded length
G1 E20 F200             ;extrude 20mm of feed stock
G92 E0                  ;zero the extruded length again
G1 F7200                ;set feedrate to 120 mm/s
; -- end of START GCODE --
G92 E0
G92 E0
G1 F1500 E-6.5
;LAYER_COUNT:93
;LAYER:0
M107
G0 F3600 X107.187 Y100.732 Z0.2
;TYPE:SKIRT
G1 F1500 E0
G1 F1200 X107.695 Y100.222 E0.02394
G1 X108.543 Y99.486 E0.06129
G1 X109.11 Y99.061 E0.08486
G1 X110.027 Y98.469 E0.12116
G1 X110.652 Y98.125 E0.14489
G1 X111.674 Y97.655 E0.1823
G1 X112.338 Y97.406 E0.20589
G1 X113.391 Y97.093 E0.24243
G1 X114.091 Y96.938 E0.26627
G1 X115.194 Y96.776 E0.30335
G1 X115.901 Y96.723 E0.32693
G1 X116.483 Y96.701 E0.3463
G1 X121.7 Y96.701 E0.51982
G1 X121.7 Y92.617 E0.65566
G1 X121.74 Y91.828 E0.68193
G1 X121.859 Y91.048 E0.70817
G1 X122.057 Y90.283 E0.73446
G1 X122.331 Y89.543 E0.7607
G1 X122.679 Y88.834 E0.78697
G1 X123.097 Y88.163 E0.81327
G1 X123.58 Y87.539 E0.83951
G1 X123.985 Y87.102 E0.85933
G1 X124.688 Y86.455 E0.8911
G1 X125.324 Y85.988 E0.91735
G1 X126.004 Y85.587 E0.9436
G1 X126.722 Y85.257 E0.96989
G1 X127.469 Y85.002 E0.99614
G1 X128.238 Y84.823 E1.0224
G1 X129.022 Y84.723 E1.04869
G1 X129.617 Y84.7 E1.06849
G1 X171.7 Y84.7 E2.46818
G1 X171.74 Y83.828 E2.49721
G1 X171.859 Y83.048 E2.52346
G1 X172.057 Y82.283 E2.54974
G1 X172.331 Y81.543 E2.57598
G1 X172.679 Y80.834 E2.60225
G1 X173.097 Y80.163 E2.62855
G1 X173.58 Y79.539 E2.65479
G1 X173.985 Y79.102 E2.67461
G1 X174.688 Y78.455 E2.70639
G1 X175.324 Y77.988 E2.73263
G1 X176.004 Y77.587 E2.75889
G1 X176.722 Y77.257 E2.78517
G1 X177.469 Y77.002 E2.81142
G1 X178.238 Y76.823 E2.83768
G1 X179.022 Y76.723 E2.86397
G1 X179.617 Y76.7 E2.88377
G1 X185.383 Y76.7 E3.07555
G1 X186.172 Y76.74 E3.10183
G1 X186.952 Y76.859 E3.12807
G1 X187.717 Y77.057 E3.15435
G1 X188.457 Y77.331 E3.1806
G1 X189.166 Y77.679 E3.20687
G1 X189.837 Y78.097 E3.23316
G1 X190.461 Y78.58 E3.25941
G1 X190.898 Y78.985 E3.27922
G1 X191.545 Y79.688 E3.311
G1 X192.012 Y80.324 E3.33724
G1 X192.413 Y81.004 E3.3635
G1 X192.743 Y81.722 E3.38978
G1 X192.998 Y82.469 E3.41604
G1 X193.177 Y83.238 E3.4423
G1 X193.277 Y84.022 E3.46858
G1 X193.3 Y84.617 E3.48839
G1 X193.3 Y125.383 E4.84427
G1 X193.26 Y126.172 E4.87055
G1 X193.141 Y126.952 E4.89679
G1 X192.943 Y127.717 E4.92307
G1 X192.669 Y128.457 E4.94932
G1 X192.321 Y129.166 E4.97559
G1 X191.903 Y129.837 E5.00188
G1 X191.42 Y130.461 E5.02813
G1 X191.015 Y130.898 E5.04794
G1 X190.312 Y131.545 E5.07972
G1 X189.676 Y132.012 E5.10596
G1 X188.996 Y132.413 E5.13222
G1 X188.278 Y132.743 E5.1585
G1 X187.531 Y132.998 E5.18476
G1 X186.762 Y133.177 E5.21102
G1 X185.978 Y133.277 E5.2373
G1 X185.383 Y133.3 E5.25711
G1 X179.617 Y133.3 E5.44889
G1 X178.828 Y133.26 E5.47516
G1 X178.048 Y133.141 E5.50141
G1 X177.283 Y132.943 E5.52769
G1 X176.543 Y132.669 E5.55393
G1 X175.834 Y132.321 E5.5802
G1 X175.163 Y131.903 E5.6065
G1 X174.539 Y131.42 E5.63274
G1 X174.102 Y131.015 E5.65256
G1 X173.455 Y130.312 E5.68434
G1 X172.988 Y129.676 E5.71058
G1 X172.587 Y128.996 E5.73684
G1 X172.257 Y128.278 E5.76312
G1 X172.002 Y127.531 E5.78937
G1 X171.823 Y126.762 E5.81563
G1 X171.723 Y125.978 E5.84192
G1 X171.7 Y125.383 E5.86172
G1 X171.7 Y112.3 E6.29687
G1 X147.3 Y112.3 E7.10841
G1 X147.3 Y122.383 E7.44377
G1 X147.26 Y123.172 E7.47005
G1 X147.141 Y123.952 E7.49629
G1 X146.943 Y124.717 E7.52258
G1 X146.669 Y125.457 E7.54882
G1 X146.321 Y126.166 E7.57509
G1 X145.903 Y126.837 E7.60138
G1 X145.42 Y127.461 E7.62763
G1 X145.015 Y127.898 E7.64745
G1 X144.312 Y128.545 E7.67922
G1 X143.676 Y129.012 E7.70547
G1 X142.996 Y129.413 E7.73172
G1 X142.278 Y129.743 E7.75801
G1 X141.531 Y129.998 E7.78426
G1 X140.762 Y130.177 E7.81052
G1 X139.978 Y130.277 E7.83681
G1 X139.383 Y130.3 E7.85661
G1 X111.617 Y130.3 E8.78011
G1 X110.828 Y130.26 E8.80639
G1 X110.048 Y130.141 E8.83263
G1 X109.283 Y129.943 E8.85891
G1 X108.543 Y129.669 E8.88516
G1 X107.834 Y129.321 E8.91143
G1 X107.163 Y128.903 E8.93772
G1 X106.539 Y128.42 E8.96397
G1 X106.102 Y128.015 E8.98378
G1 X105.455 Y127.312 E9.01556
G1 X104.988 Y126.676 E9.04181
G1 X104.587 Y125.996 E9.06806
G1 X104.257 Y125.278 E9.09434
G1 X104.002 Y124.531 E9.1206
G1 X103.823 Y123.762 E9.14686
G1 X103.723 Y122.978 E9.17315
G1 X103.7 Y122.383 E9.19295
G1 X103.7 Y109.597 E9.61821
G1 X103.765 Y108.31 E9.66107
G1 X103.925 Y107.153 E9.69992
G1 X104.074 Y106.462 E9.72343
G1 X104.383 Y105.402 E9.76016
G1 X104.628 Y104.739 E9.78367
G1 X105.089 Y103.721 E9.82083
G1 X105.436 Y103.082 E9.84502
G1 X106.034 Y102.147 E9.88193
G1 X106.456 Y101.58 E9.90544
G1 X107.187 Y100.732 E9.94268
G0 F3600 X107.47 Y101.015
G1 F1200 X107.978 Y100.505 E9.96662
G1 X108.783 Y99.806 E10.00208
G1 X109.35 Y99.381 E10.02565
G1 X110.22 Y98.819 E10.0601
G1 X110.845 Y98.475 E10.08383
G1 X111.815 Y98.029 E10.11934
G1 X112.479 Y97.78 E10.14292
G1 X113.477 Y97.484 E10.17754
G1 X114.177 Y97.329 E10.20139
G1 X115.224 Y97.175 E10.23659
G1 X115.931 Y97.122 E10.26017
G1 X116.483 Y97.101 E10.27854
G1 X122.1 Y97.101 E10.46536
G1 X122.1 Y92.617 E10.6145
G1 X122.14 Y91.849 E10.64008
G1 X122.259 Y91.089 E10.66567
G1 X122.457 Y90.346 E10.69124
G1 X122.731 Y89.627 E10.71683
G1 X123.078 Y88.941 E10.7424
G1 X123.494 Y88.294 E10.76799
G1 X123.975 Y87.694 E10.79356
G1 X124.384 Y87.267 E10.81323
G1 X124.956 Y86.753 E10.83881
G1 X125.578 Y86.3 E10.8644
G1 X126.243 Y85.914 E10.88997
G1 X126.945 Y85.599 E10.91557
G1 X127.676 Y85.359 E10.94116
G1 X128.427 Y85.196 E10.96672
G1 X129.192 Y85.112 E10.99231
G1 X172.1 Y85.1 E12.41944
G1 X172.14 Y83.849 E12.46107
G1 X172.259 Y83.089 E12.48665
G1 X172.457 Y82.346 E12.51223
G1 X172.731 Y81.627 E12.53782
G1 X173.078 Y80.941 E12.56339
G1 X173.494 Y80.294 E12.58897
G1 X173.975 Y79.694 E12.61455
G1 X174.384 Y79.267 E12.63422
G1 X174.956 Y78.753 E12.65979
G1 X175.578 Y78.3 E12.68539
G1 X176.243 Y77.914 E12.71096
G1 X176.945 Y77.599 E12.73655
G1 X177.676 Y77.359 E12.76214
G1 X178.427 Y77.196 E12.7877
G1 X179.192 Y77.112 E12.8133
G1 X185.383 Y77.1 E13.01921
G1 X186.151 Y77.14 E13.04479
G1 X186.911 Y77.259 E13.07038
G1 X187.654 Y77.457 E13.09595
G1 X188.373 Y77.731 E13.12154
G1 X189.059 Y78.078 E13.14711
G1 X189.706 Y78.494 E13.1727
G1 X190.306 Y78.975 E13.19827
G1 X190.733 Y79.384 E13.21794
G1 X191.247 Y79.956 E13.24352
G1 X191.7 Y80.578 E13.26911
G1 X192.086 Y81.243 E13.29468
G1 X192.401 Y81.945 E13.32027
G1 X192.641 Y82.676 E13.34586
G1 X192.804 Y83.427 E13.37142
G1 X192.888 Y84.192 E13.39702
G1 X192.9 Y125.383 E14.76704
G1 X192.86 Y126.151 E14.79262
G1 X192.741 Y126.911 E14.8182
G1 X192.543 Y127.654 E14.84378
G1 X192.269 Y128.373 E14.86937
G1 X191.922 Y129.059 E14.89494
G1 X191.506 Y129.706 E14.92052
G1 X191.025 Y130.306 E14.9461
G1 X190.616 Y130.733 E14.96577
G1 X190.044 Y131.247 E14.99134
G1 X189.422 Y131.7 E15.01694
G1 X188.757 Y132.086 E15.04251
G1 X188.055 Y132.401 E15.0681
G1 X187.324 Y132.641 E15.09369
G1 X186.573 Y132.804 E15.11925
G1 X185.808 Y132.888 E15.14485
G1 X179.617 Y132.9 E15.35076
G1 X178.849 Y132.86 E15.37634
G1 X178.089 Y132.741 E15.40193
G1 X177.346 Y132.543 E15.4275
G1 X176.627 Y132.269 E15.45309
G1 X175.941 Y131.922 E15.47866
G1 X175.294 Y131.506 E15.50425
G1 X174.694 Y131.025 E15.52982
G1 X174.267 Y130.616 E15.54949
G1 X173.753 Y130.044 E15.57507
G1 X173.3 Y129.422 E15.60066
G1 X172.914 Y128.757 E15.62623
G1 X172.599 Y128.055 E15.65183
G1 X172.359 Y127.324 E15.67742
G1 X172.196 Y126.573 E15.70298
G1 X172.112 Y125.808 E15.72857
G1 X172.1 Y111.9 E16.19115
G1 X146.9 Y111.9 E17.02931
G1 X146.9 Y122.383 E17.37798
G1 X146.86 Y123.151 E17.40355
G1 X146.741 Y123.911 E17.42914
G1 X146.543 Y124.654 E17.45471
G1 X146.269 Y125.373 E17.48031
G1 X145.922 Y126.059 E17.50588
G1 X145.506 Y126.706 E17.53146
G1 X145.025 Y127.306 E17.55704
G1 X144.616 Y127.733 E17.5767
G1 X144.044 Y128.247 E17.60228
G1 X143.422 Y128.7 E17.62787
G1 X142.757 Y129.086 E17.65345
G1 X142.055 Y129.401 E17.67904
G1 X141.324 Y129.641 E17.70463
G1 X140.573 Y129.804 E17.73019
G1 X139.808 Y129.888 E17.75578
G1 X111.617 Y129.9 E18.69342
G1 X110.849 Y129.86 E18.719
G1 X110.089 Y129.741 E18.74459
G1 X109.346 Y129.543 E18.77016
G1 X108.627 Y129.269 E18.79575
G1 X107.941 Y128.922 E18.82132
G1 X107.294 Y128.506 E18.8469
G1 X106.694 Y128.025 E18.87248
G1 X106.267 Y127.616 E18.89215
G1 X105.753 Y127.044 E18.91773
G1 X105.3 Y126.422 E18.94332
G1 X104.914 Y125.757 E18.96889
G1 X104.599 Y125.055 E18.99448
G1 X104.359 Y124.324 E19.02007
G1 X104.196 Y123.573 E19.04563
G1 X104.112 Y122.808 E19.07123
G1 X104.1 Y109.597 E19.51063
G1 X104.164 Y108.335 E19.55266
G1 X104.316 Y107.237 E19.58953
G1 X104.465 Y106.546 E19.61304
G1 X104.758 Y105.541 E19.64786
G1 X105.003 Y104.878 E19.67136
G1 X105.441 Y103.912 E19.70664
G1 X105.788 Y103.273 E19.73083
G1 X106.355 Y102.386 E19.76584
G1 X106.777 Y101.819 E19.78935
G1 X107.47 Y101.015 E19.82465
G0 F3600 X107.754 Y101.297
G1 F1200 X108.262 Y100.787 E19.8486
G1 X109.023 Y100.126 E19.88212
G1 X109.59 Y99.701 E19.90569
G1 X110.413 Y99.17 E19.93827
G1 X111.038 Y98.826 E19.96199
G1 X111.955 Y98.404 E19.99557
G1 X112.619 Y98.155 E20.01915
G1 X113.564 Y97.875 E20.05194
G1 X114.264 Y97.72 E20.07578
G1 X115.254 Y97.574 E20.10907
G1 X115.961 Y97.521 E20.13265
G1 X116.483 Y97.501 E20.15002
G1 X122.5 Y97.501 E20.35015
G1 X122.5 Y92.617 E20.51259
G1 X122.54 Y91.87 E20.53747
G1 X122.659 Y91.132 E20.56233
G1 X122.857 Y90.41 E20.58723
G1 X123.13 Y89.714 E20.6121
G1 X123.477 Y89.051 E20.63699
G1 X123.892 Y88.428 E20.66189
G1 X124.55 Y87.667 E20.69535
G1 X125.224 Y87.05 E20.72574
G1 X125.83 Y86.613 E20.75059
G1 X126.48 Y86.242 E20.77548
G1 X127.166 Y85.943 E20.80037
G1 X127.88 Y85.719 E20.82526
G1 X128.613 Y85.572 E20.85013
G1 X129.617 Y85.5 E20.8836
G1 X172.5 Y85.5 E22.3099
G1 X172.5 Y84.617 E22.33927
G1 X172.54 Y83.87 E22.36415
G1 X172.659 Y83.132 E22.38901
G1 X172.857 Y82.41 E22.41391
G1 X173.13 Y81.714 E22.43878
G1 X173.477 Y81.051 E22.46367
G1 X173.892 Y80.428 E22.48856
G1 X174.55 Y79.667 E22.52202
G1 X175.224 Y79.05 E22.55242
G1 X175.83 Y78.613 E22.57727
G1 X176.48 Y78.242 E22.60216
G1 X177.166 Y77.943 E22.62705
G1 X177.88 Y77.719 E22.65194
G1 X178.613 Y77.572 E22.6768
G1 X179.617 Y77.5 E22.71028
G1 X185.383 Y77.5 E22.90206
G1 X186.13 Y77.54 E22.92694
G1 X186.868 Y77.659 E22.9518
G1 X187.59 Y77.857 E22.9767
G1 X188.286 Y78.13 E23.00157
G1 X188.949 Y78.477 E23.02646
G1 X189.572 Y78.892 E23.05136
G1 X190.333 Y79.55 E23.08482
G1 X190.95 Y80.224 E23.11521
G1 X191.387 Y80.83 E23.14006
G1 X191.758 Y81.48 E23.16495
G1 X192.057 Y82.166 E23.18984
G1 X192.281 Y82.88 E23.21473
G1 X192.428 Y83.613 E23.2396
G1 X192.5 Y84.617 E23.27307
G1 X192.5 Y125.383 E24.62896
G1 X192.46 Y126.13 E24.65384
G1 X192.341 Y126.868 E24.6787
G1 X192.143 Y127.59 E24.7036
G1 X191.87 Y128.286 E24.72847
G1 X191.523 Y128.949 E24.75336
G1 X191.108 Y129.572 E24.77825
G1 X190.45 Y130.333 E24.81171
G1 X189.776 Y130.95 E24.84211
G1 X189.17 Y131.387 E24.86696
G1 X188.52 Y131.758 E24.89185
G1 X187.834 Y132.057 E24.91674
G1 X187.12 Y132.281 E24.94163
G1 X186.387 Y132.428 E24.96649
G1 X185.383 Y132.5 E24.99997
G1 X179.617 Y132.5 E25.19175
G1 X178.87 Y132.46 E25.21663
G1 X178.132 Y132.341 E25.24149
G1 X177.41 Y132.143 E25.26639
G1 X176.714 Y131.87 E25.29126
G1 X176.051 Y131.523 E25.31615
G1 X175.428 Y131.108 E25.34105
G1 X174.667 Y130.45 E25.37451
G1 X174.05 Y129.776 E25.4049
G1 X173.613 Y129.17 E25.42975
G1 X173.242 Y128.52 E25.45464
G1 X172.943 Y127.834 E25.47953
G1 X172.719 Y127.12 E25.50442
G1 X172.572 Y126.387 E25.52929
G1 X172.5 Y125.383 E25.56276
G1 X172.5 Y111.5 E26.02451
G1 X146.5 Y111.5 E26.88928
G1 X146.5 Y122.383 E27.25125
G1 X146.46 Y123.13 E27.27613
G1 X146.341 Y123.868 E27.30099
G1 X146.143 Y124.59 E27.32589
G1 X145.87 Y125.286 E27.35076
G1 X145.523 Y125.949 E27.37565
G1 X145.108 Y126.572 E27.40055
G1 X144.45 Y127.333 E27.43401
G1 X143.776 Y127.95 E27.4644
G1 X143.17 Y128.387 E27.48925
G1 X142.52 Y128.758 E27.51414
G1 X141.834 Y129.057 E27.53903
G1 X141.12 Y129.281 E27.56392
G1 X140.387 Y129.428 E27.58878
G1 X139.383 Y129.5 E27.62226
G1 X111.617 Y129.5 E28.54576
G1 X110.87 Y129.46 E28.57064
G1 X110.132 Y129.341 E28.59551
G1 X109.41 Y129.143 E28.62041
G1 X108.714 Y128.87 E28.64527
G1 X108.051 Y128.523 E28.67016
G1 X107.428 Y128.108 E28.69506
G1 X106.667 Y127.45 E28.72852
G1 X106.05 Y126.776 E28.75891
G1 X105.613 Y126.17 E28.78376
G1 X105.242 Y125.52 E28.80866
G1 X104.943 Y124.834 E28.83355
G1 X104.719 Y124.12 E28.85843
G1 X104.572 Y123.387 E28.8833
G1 X104.5 Y122.383 E28.91678
G1 X104.5 Y109.597 E29.34204
G1 X104.564 Y108.36 E29.38324
G1 X104.707 Y107.322 E29.41809
G1 X104.856 Y106.631 E29.4416
G1 X105.133 Y105.68 E29.47455
G1 X105.378 Y105.017 E29.49805
G1 X105.792 Y104.103 E29.53143
G1 X106.139 Y103.464 E29.55561
G1 X106.676 Y102.625 E29.58874
G1 X107.098 Y102.058 E29.61225
G1 X107.754 Y101.297 E29.64567
G0 F3600 X108.037 Y101.579
G1 F1200 X108.545 Y101.069 E29.66961
G1 X109.262 Y100.446 E29.7012
G1 X109.829 Y100.021 E29.72477
G1 X110.606 Y99.52 E29.75552
G1 X111.231 Y99.176 E29.77925
G1 X112.096 Y98.778 E29.81092
G1 X112.76 Y98.529 E29.83451
G1 X113.65 Y98.265 E29.86538
G1 X114.35 Y98.11 E29.88923
G1 X115.284 Y97.972 E29.92063
G1 X115.991 Y97.919 E29.94421
G1 X122.9 Y97.901 E30.17401
G1 X122.9 Y92.617 E30.34975
G1 X122.94 Y91.892 E30.3739
G1 X123.059 Y91.175 E30.39808
G1 X123.257 Y90.476 E30.42224
G1 X123.53 Y89.803 E30.4464
G1 X123.875 Y89.164 E30.47055
G1 X124.289 Y88.567 E30.49471
G1 X124.833 Y87.95 E30.52207
G1 X125.491 Y87.349 E30.55171
G1 X126.082 Y86.926 E30.57588
G1 X126.716 Y86.572 E30.60004
G1 X127.385 Y86.289 E30.6242
G1 X128.081 Y86.081 E30.64836
G1 X128.796 Y85.951 E30.67253
G1 X129.617 Y85.9 E30.69989
G1 X172.9 Y85.9 E32.13948
G1 X172.9 Y84.617 E32.18216
G1 X172.94 Y83.892 E32.20631
G1 X173.059 Y83.175 E32.23048
G1 X173.257 Y82.476 E32.25464
G1 X173.53 Y81.803 E32.2788
G1 X173.875 Y81.164 E32.30295
G1 X174.289 Y80.567 E32.32712
G1 X174.833 Y79.95 E32.35448
G1 X175.491 Y79.349 E32.38412
G1 X176.082 Y78.926 E32.40829
G1 X176.716 Y78.572 E32.43244
G1 X177.385 Y78.289 E32.4566
G1 X178.081 Y78.081 E32.48076
G1 X178.796 Y77.951 E32.50493
G1 X179.617 Y77.9 E32.53229
G1 X185.383 Y77.9 E32.72407
G1 X186.108 Y77.94 E32.74822
G1 X186.825 Y78.059 E32.77239
G1 X187.524 Y78.257 E32.79656
G1 X188.197 Y78.53 E32.82071
G1 X188.836 Y78.875 E32.84487
G1 X189.433 Y79.289 E32.86903
G1 X190.05 Y79.833 E32.89639
G1 X190.651 Y80.491 E32.92603
G1 X191.074 Y81.082 E32.9502
G1 X191.428 Y81.716 E32.97435
G1 X191.711 Y82.385 E32.99851
G1 X191.919 Y83.081 E33.02267
G1 X192.049 Y83.796 E33.04684
G1 X192.1 Y84.617 E33.0742
G1 X192.1 Y125.383 E34.43009
G1 X192.06 Y126.108 E34.45424
G1 X191.941 Y126.825 E34.47841
G1 X191.743 Y127.524 E34.50257
G1 X191.47 Y128.197 E34.52673
G1 X191.125 Y128.836 E34.55088
G1 X190.711 Y129.433 E34.57504
G1 X190.167 Y130.05 E34.6024
G1 X189.509 Y130.651 E34.63204
G1 X188.918 Y131.074 E34.65622
G1 X188.284 Y131.428 E34.68037
G1 X187.615 Y131.711 E34.70453
G1 X186.919 Y131.919 E34.72869
G1 X186.204 Y132.049 E34.75286
G1 X185.383 Y132.1 E34.78022
